!!! OTL: Literature50
!!! Chapter: 5
!!! Section: II
!!! Page: 356
!!! Mode: 
!!! Encoder: DJB
**kern
*staff1
*I"Piano
=1-
*clefG2
*k[b-e-a-]
*E-:
*M3/8
8e-/L
8e-/
8e-/J
=2
8g/L
8g/
8g/J
=3
8b-\L
8b-\
8b-\J
=4
16e-/LL
16ee-/
16dd/
16ee-/
16b-/
16ee-/JJ
=5
16cc\LL
16ee-\
16b-\
16ee-\
16a-\
16ee-\JJ
=6
16b-\LL
16ee-\
16a-\
16ee-\
16g\
16ee-\JJ
=7
16a-\LL
16ee-\
16g\
16ee-\
16f\
16ee-\JJ
=8
16g/LL
16ee-/
16f/
16ee-/
16e-/
16ee-/JJ
=9
8a-/L
8f/
8b-/J
=10
4.e-/
==
*-
